X:1
T:Banish Misfortune
M:6/8
L:1/8
R:jig
K:DMix
"D"f2d "C"cAG|"D"Add "C"cAG|"D"F2D DED|"D"FEF "C"GFG|"D"A3 cAG|"D"AGA "C"cde|"D"fed "Am"cAG|"G"Add "D"d2e:|
|:"D"f2d d^cd|f2a agf|"C"e2c cBc|"Am"e2f gfe|"D"f2g agf|"C"e2f gfe|"D"fed "Am"cAG|"G"Add "D"d2e:|
|:"D"f2g e2f|ded cdc|"D"A2A BAG|FAF GED|"C"~c3 cAG|"Am"AGA "C"cde|"D"fed "Am"cAG|"G"Add "D"d2e:|
